modules/coreui-icons-free/icons/smile-plus.svg

<!-- Generated by IcoMoon.io -->
<svg version="1.1" xmlns="http://www.w3.org/2000/svg" width="24" height="24" viewBox="0 0 24 24">
<title>smile-plus</title>
<path d="M20.25 3.75v-3h-1.5v3h-3v1.5h3v3h1.5v-3h3v-1.5h-3z"></path>
<path d="M5.25 12h1.875v1.875h-1.875v-1.875z"></path>
<path d="M11.625 12h1.875v1.875h-1.875v-1.875z"></path>
<path d="M9.536 18h-0.322c-0.003 0-0.006 0-0.010 0-1.249 0-2.318-0.767-2.764-1.855l-0.007-0.020h-1.616l0.219 0.546c0.675 1.671 2.284 2.829 4.164 2.829 0.005 0 0.010 0 0.015-0h0.321c0.004 0 0.009 0 0.015 0 1.879 0 3.488-1.158 4.153-2.799l0.011-0.030 0.219-0.546h-1.616c-0.453 1.108-1.522 1.875-2.771 1.875-0.003 0-0.007 0-0.010-0h0.001z"></path>
<path d="M9.375 6c-4.756 0-8.625 3.869-8.625 8.625s3.869 8.625 8.625 8.625 8.625-3.869 8.625-8.625-3.869-8.625-8.625-8.625zM9.375 21.75c-3.929 0-7.125-3.196-7.125-7.125s3.196-7.125 7.125-7.125 7.125 3.196 7.125 7.125-3.196 7.125-7.125 7.125z"></path>
</svg>

<svg xmlns="http://www.w3.org/2000/svg" width="24" height="24" viewBox="0 0 24 24"><path d="M20.25 3.75v-3h-1.5v3h-3v1.5h3v3h1.5v-3h3v-1.5h-3zM5.25 12h1.875v1.875H5.25V12zM11.625 12H13.5v1.875h-1.875V12zM9.536 18h-.332a2.987 2.987 0 01-2.764-1.855l-.007-.02H4.817l.219.546C5.711 18.342 7.32 19.5 9.2 19.5H9.551a4.482 4.482 0 004.153-2.799l.011-.03.219-.546h-1.616A2.992 2.992 0 019.547 18h-.01.001z"/><path d="M9.375 6C4.619 6 .75 9.869.75 14.625s3.869 8.625 8.625 8.625S18 19.381 18 14.625 14.131 6 9.375 6zm0 15.75c-3.929 0-7.125-3.196-7.125-7.125S5.446 7.5 9.375 7.5s7.125 3.196 7.125 7.125-3.196 7.125-7.125 7.125z"/></svg>
